src/lib/packages/icons/src/assets/line/euro-circle.svg

<svg width="24" height="24" viewBox="0 0 24 24" fill="none" xmlns="http://www.w3.org/2000/svg">
<path d="M12 1.25C6.072 1.25 1.25 6.072 1.25 12C1.25 17.928 6.072 22.75 12 22.75C17.928 22.75 22.75 17.928 22.75 12C22.75 6.072 17.928 1.25 12 1.25ZM12 21.25C6.899 21.25 2.75 17.101 2.75 12C2.75 6.899 6.899 2.75 12 2.75C17.101 2.75 21.25 6.899 21.25 12C21.25 17.101 17.101 21.25 12 21.25ZM13.25 8.25C13.738 8.25 14.209 8.34302 14.651 8.52502C15.036 8.68302 15.473 8.50104 15.631 8.11804C15.789 7.73504 15.607 7.29594 15.224 7.13794C14.599 6.87994 13.935 6.74902 13.25 6.74902C11.018 6.74902 9.11899 8.15502 8.36099 10.124H7.06201C6.64801 10.124 6.31201 10.46 6.31201 10.874C6.31201 11.288 6.64801 11.624 7.06201 11.624H8.03699C8.02799 11.75 7.99899 11.871 7.99899 11.999C7.99899 12.127 8.02799 12.248 8.03699 12.374H7.06201C6.64801 12.374 6.31201 12.71 6.31201 13.124C6.31201 13.538 6.64801 13.874 7.06201 13.874H8.36099C9.11899 15.843 11.017 17.249 13.25 17.249C13.927 17.249 14.589 17.121 15.217 16.869C15.601 16.715 15.788 16.2779 15.633 15.8929C15.479 15.5089 15.044 15.3211 14.657 15.4771C14.208 15.6581 13.734 15.749 13.249 15.749C11.867 15.749 10.671 14.989 10.021 13.874H12.687C13.101 13.874 13.437 13.538 13.437 13.124C13.437 12.71 13.101 12.374 12.687 12.374H9.53699C9.52399 12.249 9.49899 12.127 9.49899 11.999C9.49899 11.871 9.52399 11.749 9.53699 11.624H12.687C13.101 11.624 13.437 11.288 13.437 10.874C13.437 10.46 13.101 10.124 12.687 10.124H10.021C10.672 9.01002 11.868 8.25 13.25 8.25Z" fill="currentColor"/>
</svg>

<svg xmlns="http://www.w3.org/2000/svg" width="24" height="24" fill="none"><path fill="currentColor" d="M12 1.25C6.072 1.25 1.25 6.072 1.25 12S6.072 22.75 12 22.75 22.75 17.928 22.75 12 17.928 1.25 12 1.25Zm0 20c-5.101 0-9.25-4.149-9.25-9.25S6.899 2.75 12 2.75s9.25 4.149 9.25 9.25-4.149 9.25-9.25 9.25Zm1.25-13c.488 0 .959.093 1.401.275a.75.75 0 1 0 .573-1.387 5.146 5.146 0 0 0-1.974-.389c-2.232 0-4.131 1.406-4.889 3.375H7.062a.75.75 0 0 0 0 1.5h.975c-.009.126-.038.247-.038.375s.029.249.038.375h-.975a.75.75 0 0 0 0 1.5h1.299c.758 1.969 2.656 3.375 4.889 3.375a5.26 5.26 0 0 0 1.967-.38.75.75 0 1 0-.56-1.392 3.749 3.749 0 0 1-1.408.272c-1.382 0-2.578-.76-3.228-1.875h2.666a.75.75 0 0 0 0-1.5h-3.15c-.013-.125-.038-.247-.038-.375s.025-.25.038-.375h3.15a.75.75 0 0 0 0-1.5h-2.666c.651-1.114 1.847-1.874 3.229-1.874Z"/></svg>
